X:223
M:4/4
L:1/4
K:F
F | c A/G/ F G | A3 A | A F/G/ A =B | c3 c | d c/B/ A A | A/G/ =F/G/ A D | G A B A | G3 !sintro!c | c3 c | c3 c | B A/G/ A G | F3 !eintro!|]
